X: 3834
T: Black Is The Colour
R: polka
M: 2/4
K: Aminor
"Am"E E2 A,2|"F"C2 C6-|C4 C2 C2|"G"D4 B,4|"Am"A,8|z6 E2|
"C"E2-G4 E2|"F"A8-|A4 G4|"G"B8-|B4 G4|"E"E8-|
E4 EE E2|"C"E4 G4|"F"A8-|A4 G2 G2|"G" B8-|B4 G4|
"E" E8-|E4 E2 E2|"Am"E6 A,2|"F"C8-|
C4 B,2 D2-|"G"D4 B,4|"Am"A,8-|A4 z||

